mimetypes/64/application-x-bytecode.svg

<?xml version="1.0" encoding="UTF-8"?>
<!-- Created with Inkscape (http://www.inkscape.org/) -->
<svg width="64" height="64" version="1.1" xmlns="http://www.w3.org/2000/svg" xmlns:cc="http://creativecommons.org/ns#" xmlns:dc="http://purl.org/dc/elements/1.1/" xmlns:rdf="http://www.w3.org/1999/02/22-rdf-syntax-ns#" xmlns:xlink="http://www.w3.org/1999/xlink">
	<defs>
		<radialGradient id="a" cx="32" cy="46.734" r="32" gradientTransform="matrix(1.4154 0 0 1.3269 -13.292 -16.074)" gradientUnits="userSpaceOnUse">
			<stop stop-color="#0c1116" stop-opacity=".25948" offset="0"/>
			<stop stop-color="#0c1116" stop-opacity="0" offset="1"/>
		</radialGradient>
	</defs>
	<metadata>
		<rdf:RDF>
			<cc:Work rdf:about="">
				<dc:format>image/svg+xml</dc:format>
				<dc:type rdf:resource="http://purl.org/dc/dcmitype/StillImage"/>
				<dc:title/>
			</cc:Work>
		</rdf:RDF>
	</metadata>
	<path d="m0 4v58l2 2h60l2-2v-58h-32z" color="#000000" fill="#405673"/>
	<path d="m2 0-2 1v3h64v-3l-2-1h-60z" color="#000000" fill="#afc4df"/>
	<path d="m0 3v3l2-2z" fill="#d4e1f0"/>
	<path d="m64 6-2-2 2-1z" fill="#778ca8" fill-opacity=".99463"/>
	<path d="m5 9v11h12v-11h-12zm28 0v11h12v-11h-12zm-14 13v11h12v-11h-12zm28 0v11h12v-11h-12zm-42 13v11h12v-11h-12zm28 0v11h12v-11h-12zm-14 13v11h12v-11h-12zm28 0v11h12v-11h-12z" color="#000000" fill="#fdffff" fill-opacity=".23137" fill-rule="evenodd"/>
	<path d="m19 9v11h12v-11h-12zm28 0v11h12v-11h-12zm-42 13v11h12v-11h-12zm28 0v11h12v-11h-12zm-14 13v11h12v-11h-12zm28 0v11h12v-11h-12zm-42 13v11h12v-11h-12zm28 0v11h12v-11h-12z" color="#000000" fill="#ffffff" fill-opacity=".10196" fill-rule="evenodd"/>
	<path d="m0 4v58l2 2h60l2-2v-58h-64z" color="#000000" fill="url(#a)"/>
</svg>

<?xml version="1.0" encoding="UTF-8" standalone="no"?>
<!-- Created with Inkscape (http://www.inkscape.org/) -->

<svg
   xmlns:dc="http://purl.org/dc/elements/1.1/"
   xmlns:cc="http://creativecommons.org/ns#"
   xmlns:rdf="http://www.w3.org/1999/02/22-rdf-syntax-ns#"
   xmlns:svg="http://www.w3.org/2000/svg"
   xmlns="http://www.w3.org/2000/svg"
   xmlns:xlink="http://www.w3.org/1999/xlink"
   xmlns:sodipodi="http://sodipodi.sourceforge.net/DTD/sodipodi-0.dtd"
   xmlns:inkscape="http://www.inkscape.org/namespaces/inkscape"
   width="64"
   height="64"
   id="svg13094"
   version="1.1"
   inkscape:version="0.92.2 5c3e80d, 2017-08-06"
   sodipodi:docname="application-octet-stream.svg">
  <sodipodi:namedview
     id="base"
     pagecolor="#ffffff"
     bordercolor="#666666"
     borderopacity="1.0"
     inkscape:pageopacity="0"
     inkscape:pageshadow="2"
     inkscape:zoom="8.0000004"
     inkscape:cx="21.920221"
     inkscape:cy="36.173642"
     inkscape:document-units="px"
     inkscape:current-layer="svg13094"
     showgrid="true"
     inkscape:snap-bbox="true"
     inkscape:bbox-paths="true"
     inkscape:bbox-nodes="true"
     inkscape:snap-bbox-edge-midpoints="true"
     inkscape:snap-bbox-midpoints="true"
     inkscape:object-paths="true"
     inkscape:snap-intersection-paths="true"
     inkscape:object-nodes="true"
     inkscape:snap-smooth-nodes="true"
     inkscape:snap-midpoints="true"
     inkscape:snap-object-midpoints="true"
     inkscape:snap-center="true"
     showguides="true"
     inkscape:guide-bbox="true"
     inkscape:window-width="1366"
     inkscape:window-height="707"
     inkscape:window-x="-5"
     inkscape:window-y="26"
     inkscape:window-maximized="1"
     inkscape:snap-global="true"
     fit-margin-top="0"
     fit-margin-left="0"
     fit-margin-right="0"
     fit-margin-bottom="0"
     showborder="true"
     inkscape:showpageshadow="false"
     inkscape:snap-page="true">
    <inkscape:grid
       type="xygrid"
       id="grid3075"
       empspacing="5"
       visible="true"
       enabled="true"
       snapvisiblegridlinesonly="true"
       originx="1.6362304e-08"
       originy="18"
       spacingx="1"
       spacingy="1" />
  </sodipodi:namedview>
  <defs
     id="defs13096">
    <linearGradient
       id="linearGradient3955">
      <stop
         offset="0"
         style="stop-color:#4b617d;stop-opacity:1;"
         id="stop3957" />
      <stop
         offset="1"
         style="stop-color:#393f44;stop-opacity:1;"
         id="stop3959" />
    </linearGradient>
    <radialGradient
       inkscape:collect="always"
       xlink:href="#linearGradient3955"
       id="radialGradient3073"
       gradientUnits="userSpaceOnUse"
       gradientTransform="matrix(0,1.6151028,-1.7330518,0,63.194933,-32.683288)"
       cx="32"
       cy="18"
       fx="32"
       fy="18"
       r="32" />
  </defs>
  <metadata
     id="metadata13099">
    <rdf:RDF>
      <cc:Work
         rdf:about="">
        <dc:format>image/svg+xml</dc:format>
        <dc:type
           rdf:resource="http://purl.org/dc/dcmitype/StillImage" />
        <dc:title />
      </cc:Work>
    </rdf:RDF>
  </metadata>
  <path
     inkscape:connector-curvature="0"
     style="color:#000000;fill:#3b577a;fill-opacity:1;fill-rule:nonzero;stroke:none;stroke-width:1;marker:none;visibility:visible;display:inline;overflow:visible;enable-background:accumulate"
     d="m 0,4 0,30 0,28 2,2 30,0 30,0 2,-2 L 64,34 64,4 32,4 0,4 z"
     id="path4095" />
  <path
     inkscape:connector-curvature="0"
     style="color:#000000;fill:#668cbb;fill-opacity:1;fill-rule:nonzero;stroke:none;stroke-width:2.28571415;marker:none;visibility:visible;display:inline;overflow:visible;enable-background:accumulate"
     d="M 2,0 0,1 0,4 32,4 64,4 64,1 62,0 32,0 2,0 z"
     id="path4090" />
  <path
     inkscape:connector-curvature="0"
     style="fill:#729bcd;fill-opacity:1;fill-rule:nonzero;stroke-width:1;stroke-linecap:butt;stroke-linejoin:miter;stroke-miterlimit:4;stroke-opacity:1;stroke-dasharray:none;stroke-dashoffset:0"
     d="M 0,3 0,6 2,4 z"
     id="path4298"
     sodipodi:nodetypes="cccc" />
  <path
     d="M 64,6 62,4 64,3 z"
     id="path3028"
     style="fill:#4f6f97;fill-opacity:1;stroke:none;stroke-width:0.62299293;marker:none"
     inkscape:connector-curvature="0" />
  <g
     id="g3043"
     inkscape:export-filename="folder.png"
     inkscape:export-xdpi="90"
     inkscape:export-ydpi="90"
     transform="translate(-0.62500009,0.082283)" />
  <g
     id="scalable"
     transform="matrix(1.0385892,0,0,1.0385892,1214.7222,1878.8121)"
     inkscape:label="#g3701"
     style="fill:#ffffff" />
  <path
     inkscape:connector-curvature="0"
     style="color:#000000;fill:#ffffff;fill-opacity:0.23137255;fill-rule:evenodd;stroke:none;stroke-width:1.06597184999999994;marker:none;visibility:visible;display:inline;overflow:visible;enable-background:accumulate"
     d="M 5,9 5,20 17,20 17,9 5,9 z m 28,0 0,11 12,0 0,-11 -12,0 z m -14,13 0,11 12,0 0,-11 -12,0 z m 28,0 0,11 12,0 0,-11 -12,0 z M 5,35 5,46 17,46 17,35 5,35 z m 28,0 0,11 12,0 0,-11 -12,0 z m -14,13 0,11 12,0 0,-11 -12,0 z m 28,0 0,11 12,0 0,-11 -12,0 z"
     id="path3854" />
  <path
     inkscape:connector-curvature="0"
     style="color:#000000;fill:#ffffff;fill-opacity:0.10196079;fill-rule:evenodd;stroke:none;stroke-width:1.06597184999999994;marker:none;visibility:visible;display:inline;overflow:visible;enable-background:accumulate"
     d="M 19,9 19,20 31,20 31,9 19,9 z M 47,9 47,20 59,20 59,9 47,9 z M 5,22 5,33 17,33 17,22 5,22 z m 28,0 0,11 12,0 0,-11 -12,0 z m -14,13 0,11 12,0 0,-11 -12,0 z m 28,0 0,11 12,0 0,-11 -12,0 z M 5,48 5,59 17,59 17,48 5,48 z m 28,0 0,11 12,0 0,-11 -12,0 z"
     id="path3876" />
</svg>
